X: 051
T: Gi' the lasses mair o't, a Reel
C: attr. John French (1753-1803)
R: reel
B: "John French Collection", John French ed. p.5 #1
S: http://www.heallan.com/french.asp
Z: 2012 John Chambers <jc:trillian.mit.edu>
M: C
L: 1/8
K: D
B | A/A/A (AF) d>ddf | dBAF (TEDE).F | A/A/A (AF) d>ddf | dBAF TE2 D :|
g | af-fb afdf | Bege bege | af-fb afdf | (B/d/e/f/ g)f Te2(dg) |
    af-fb afdf | Bege bege | afd(f ec)ae | fd-dF TE2D |]

%%sep 2 1 500
%%sep 1 1 500

